X: 1
T: Little Peggy's Love
C: William Marshall
R: strathspey
B: RSCDS 8-2
Z: 1997 by John Chambers <jc:trillian.mit.edu>
N: Published as Lady Louisa Gordon't Strathspey in 1781.
M: 4/4
L: 1/8
K: A
|: A \
| "A"E<A A>B "F#m"c>B c<A | "Bm"Fc "E7"d2 de \
| "D"f<a "A"e>c "Bm"B>A "E7"B<c | "A"E>A "E7"G>B "A"A2- "fine"A :|
|| e \
| "A"a>g a<c' "E7"a>g a<c' | "B7"a>b a>c' "E"b3 c' \
| "A"a>e e>c "D"d>d' c'>b | "A"a>f e>c "E7"B2- "d.C."B |]
